src/images/icons/arrow-from.svg

<svg width="21" height="15" viewBox="0 0 21 15" fill="none" xmlns="http://www.w3.org/2000/svg">
<path d="M8.8205 0.686466C9.07884 0.944799 9.20284 1.25695 9.1925 1.62292C9.18217 1.9889 9.04741 2.30105 8.78821 2.55938L5.13925 6.20834L19.5413 6.20834C19.9073 6.20834 20.2143 6.33234 20.4623 6.58034C20.7103 6.82834 20.8339 7.1349 20.833 7.50001C20.833 7.86598 20.709 8.17297 20.461 8.42097C20.213 8.66897 19.9064 8.79254 19.5413 8.79167L5.13925 8.79167L8.8205 12.4729C9.07884 12.7313 9.208 13.0382 9.208 13.3939C9.208 13.7495 9.07884 14.0561 8.8205 14.3136C8.56217 14.5719 8.25518 14.701 7.89955 14.701C7.54391 14.701 7.23735 14.5719 6.97988 14.3136L1.07051 8.40417C0.941338 8.27501 0.849628 8.13508 0.795378 7.98438C0.741127 7.83369 0.714434 7.67223 0.715294 7.50001C0.715294 7.32779 0.742422 7.16633 0.796671 7.01563C0.850922 6.86494 0.9422 6.72501 1.07051 6.59584L7.01217 0.654175C7.24898 0.41737 7.54477 0.298965 7.89955 0.298965C8.25432 0.298965 8.56131 0.428133 8.8205 0.686466Z" fill="#111111"/>
</svg>

<svg width="21" height="15" fill="none" xmlns="http://www.w3.org/2000/svg"><path d="M8.82.686c.259.259.383.571.373.937a1.33 1.33 0 0 1-.405.936L5.14 6.21h14.402c.366 0 .673.123.921.371s.372.555.371.92c0 .366-.124.673-.372.921a1.245 1.245 0 0 1-.92.37H5.14l3.681 3.682c.259.258.388.565.388.92 0 .356-.13.663-.388.92a1.258 1.258 0 0 1-.92.388c-.356 0-.663-.13-.92-.387l-5.91-5.91a1.14 1.14 0 0 1-.275-.42 1.398 1.398 0 0 1-.08-.484c0-.172.027-.334.082-.484.054-.151.145-.291.274-.42L7.012.654C7.25.417 7.545.3 7.9.3c.354 0 .661.13.92.387z" fill="#111"/></svg>
